X: 10732
M: 2/4
L: 1/16
K: F
!ff!c2 |\
(a2ba) (g2ag) | (f2gf) e2fe | d2e^f gabg | (fedc defg) |\
(a2ba) (g2ag) | (f2gf) (e2fe) | (defg) .[f2A2].[e2G2] | [f2A2]a2[f2G2] H|]
!p!c2 |\
.[f2A2].[fA].[fA] [f2A2]c2 | (cdcB) .B2.c2 | f2(ed) dcc=B | c4 (cdcB) |\
(BA)GF c2c2 | d2gf (fe)dc | (de)fg a2g2 | g(c/B/A/G/) F2 |]
!p!(cB) |\


